svg/media/sound_line_line.svg

<svg xmlns="http://www.w3.org/2000/svg" width="24" height="24" viewBox="0 0 24 24"><g fill="none" fill-rule="evenodd"><path d="M24,0 L24,24 L0,24 L0,0 L24,0 Z M12.5935,23.2578 L12.5819,23.2595 L12.5109,23.295 L12.4919,23.2987 L12.4767,23.295 L12.4057,23.2595 C12.3958,23.2564 12.387,23.259 12.3821,23.2649 L12.378,23.2758 L12.3609,23.7031 L12.3659,23.7235 L12.3769,23.7357 L12.4805,23.8097 L12.4953,23.8136 L12.5071,23.8097 L12.6107,23.7357 L12.6233,23.7197 L12.6267,23.7031 L12.6096,23.2758 C12.6076,23.2657 12.601,23.2593 12.5935,23.2578 Z M12.8584,23.1453 L12.8445,23.1473 L12.6598,23.2397 L12.6499,23.2499 L12.6472,23.2611 L12.6651,23.6906 L12.6699,23.7034 L12.6784,23.7105 L12.8793,23.8032 C12.8914,23.8069 12.9022,23.803 12.9078,23.7952 L12.9118,23.7812 L12.8777,23.1665 C12.8753,23.1546 12.8674,23.147 12.8584,23.1453 Z M12.143,23.1473 C12.1332,23.1424 12.1222,23.1453 12.1156,23.1526 L12.1099,23.1665 L12.0758,23.7812 C12.0751,23.7927 12.0828,23.8019 12.0926,23.8046 L12.1083,23.8032 L12.3092,23.7105 L12.3186,23.7024 L12.3225,23.6906 L12.3404,23.2611 L12.3372,23.2485 L12.3278,23.2397 L12.143,23.1473 Z"/><path fill="#09244B" d="M10,4 C10,3.44772 10.4477,3 11,3 L14,3 C14.5523,3 15,3.44772 15,4 C15,4.55228 14.5523,5 14,5 L11,5 C10.4477,5 10,4.55228 10,4 Z M10,8 C10,7.44772 10.4477,7 11,7 L14,7 C14.5523,7 15,7.44772 15,8 C15,8.55228 14.5523,9 14,9 L11,9 C10.4477,9 10,8.55228 10,8 Z M17,8 C17,7.44772 17.4477,7 18,7 L21,7 C21.5523,7 22,7.44772 22,8 C22,8.55228 21.5523,9 21,9 L18,9 C17.4477,9 17,8.55228 17,8 Z M3,12 C3,11.4477 3.44772,11 4,11 L7,11 C7.55228,11 8,11.4477 8,12 C8,12.5523 7.55228,13 7,13 L4,13 C3.44772,13 3,12.5523 3,12 Z M10,12 C10,11.4477 10.4477,11 11,11 L14,11 C14.5523,11 15,11.4477 15,12 C15,12.5523 14.5523,13 14,13 L11,13 C10.4477,13 10,12.5523 10,12 Z M17,12 C17,11.4477 17.4477,11 18,11 L21,11 C21.5523,11 22,11.4477 22,12 C22,12.5523 21.5523,13 21,13 L18,13 C17.4477,13 17,12.5523 17,12 Z M3,16 C3,15.4477 3.44772,15 4,15 L7,15 C7.55228,15 8,15.4477 8,16 C8,16.5523 7.55228,17 7,17 L4,17 C3.44772,17 3,16.5523 3,16 Z M10,16 C10,15.4477 10.4477,15 11,15 L14,15 C14.5523,15 15,15.4477 15,16 C15,16.5523 14.5523,17 14,17 L11,17 C10.4477,17 10,16.5523 10,16 Z M17,16 C17,15.4477 17.4477,15 18,15 L21,15 C21.5523,15 22,15.4477 22,16 C22,16.5523 21.5523,17 21,17 L18,17 C17.4477,17 17,16.5523 17,16 Z M3,20 C3,19.4477 3.44772,19 4,19 L7,19 C7.55228,19 8,19.4477 8,20 C8,20.5523 7.55228,21 7,21 L4,21 C3.44772,21 3,20.5523 3,20 Z M10,20 C10,19.4477 10.4477,19 11,19 L14,19 C14.5523,19 15,19.4477 15,20 C15,20.5523 14.5523,21 14,21 L11,21 C10.4477,21 10,20.5523 10,20 Z M17,20 C17,19.4477 17.4477,19 18,19 L21,19 C21.5523,19 22,19.4477 22,20 C22,20.5523 21.5523,21 21,21 L18,21 C17.4477,21 17,20.5523 17,20 Z"/></g></svg>

<svg xmlns="http://www.w3.org/2000/svg" width="24" height="24"><g fill="none" fill-rule="evenodd"><path d="M24 0v24H0V0zM12.594 23.258l-.012.002-.071.035-.02.004-.014-.004-.071-.036c-.01-.003-.019 0-.024.006l-.004.01-.017.428.005.02.01.013.104.074.015.004.012-.004.104-.074.012-.016.004-.017-.017-.427c-.002-.01-.009-.017-.016-.018m.264-.113-.014.002-.184.093-.01.01-.003.011.018.43.005.012.008.008.201.092c.012.004.023 0 .029-.008l.004-.014-.034-.614c-.003-.012-.01-.02-.02-.022m-.715.002a.023.023 0 0 0-.027.006l-.006.014-.034.614c0 .012.007.02.017.024l.015-.002.201-.093.01-.008.003-.011.018-.43-.003-.012-.01-.01z"/><path fill="#09244B" d="M10 4a1 1 0 0 1 1-1h3a1 1 0 1 1 0 2h-3a1 1 0 0 1-1-1m0 4a1 1 0 0 1 1-1h3a1 1 0 1 1 0 2h-3a1 1 0 0 1-1-1m7 0a1 1 0 0 1 1-1h3a1 1 0 1 1 0 2h-3a1 1 0 0 1-1-1M3 12a1 1 0 0 1 1-1h3a1 1 0 1 1 0 2H4a1 1 0 0 1-1-1m7 0a1 1 0 0 1 1-1h3a1 1 0 1 1 0 2h-3a1 1 0 0 1-1-1m7 0a1 1 0 0 1 1-1h3a1 1 0 1 1 0 2h-3a1 1 0 0 1-1-1M3 16a1 1 0 0 1 1-1h3a1 1 0 1 1 0 2H4a1 1 0 0 1-1-1m7 0a1 1 0 0 1 1-1h3a1 1 0 1 1 0 2h-3a1 1 0 0 1-1-1m7 0a1 1 0 0 1 1-1h3a1 1 0 1 1 0 2h-3a1 1 0 0 1-1-1M3 20a1 1 0 0 1 1-1h3a1 1 0 1 1 0 2H4a1 1 0 0 1-1-1m7 0a1 1 0 0 1 1-1h3a1 1 0 1 1 0 2h-3a1 1 0 0 1-1-1m7 0a1 1 0 0 1 1-1h3a1 1 0 1 1 0 2h-3a1 1 0 0 1-1-1"/></g></svg>
